X:1
T:Title
%%score { ( 1 3 ) | ( 2 4 ) }
L:1/8
M:4/4
K:G
V:1 treble nm="Grand Piano"
V:3 treble 
V:2 bass 
V:4 bass 
V:1
 z4 z2[Q:1/4=100] [CD]2 | [B,G]2 [B,G]2 [B,G]2 FE | [CF]2 [CF]4 D2 | A2 A2 A2 Bc | B4 A2 D2 | %5
 [B,G]2 [B,G]2 [B,G]2 .[B,F]2 | [A,DF]2 [DA]4 A2 | B2 FB A2 [^CA]2 | [DA]6 [DB]2 | %9
 [Cc]2 [CE]2 [CE]2 [CG]2 | A2 D4 B2 | [Cc]2 [CE]2 [CE]2 [CG]2 | [A,CF]4 E2 D2 | [B,G]2 AB A2 Bc | %14
 B2 d4 [Ec]2 | B2 G2 A3 [B,G] |[M:3/4] [B,G]6 |[M:1/4] [Gd]2 |[M:4/4] [FB]2 [FA]2 [=F^G]2 [^FA]2 | %19
 B2 d4 d2 | [CFB]2 [CFA]2 [B,=F^G]2 [C^FA]2 | [DGB]6 G2 | [Ee]2 [Dd]2 [Dc]2 [DB]2 | A2 G2 F2 E2 | %24
 D2 Gc [DGB]2 [CA]2 |[M:3/4] [B,G]6 |] %26
V:2
 z4 z2 [D,F,]2 | [G,,D,]2 [G,,D,]2 [G,,D,]2 [G,,D,]2 | [A,,D,]2 [A,,D,]4 D,2 | %3
 [D,F,D]2 [D,F,D]2 [D,F,D]2 [D,F,D]2 | [G,D]4 [D,F,C]2 [D,C]2 | [G,,D,]2 [G,,D,]2 [G,,D,]2 z E | %6
 A,,2 [A,,F,]4 A,2 | B,2 F,B, A,2 [A,,G,]2 | [D,F,]6 [E,^G,]2 | %9
 [A,,A,]2 [A,,A,]2 [A,,A,]2 [A,,A,]2 | [D,F,C]2 [D,F,C]4 [E,^G,D]2 | %11
 [A,,A,]2 [A,,A,]2 [A,,A,]2 [A,,A,]2 | z4 G,2 [D,F,C]2 | [G,,G,]2 [B,,G,]2 [D,F,D]2 [D,F,D]2 | %14
 [G,D]2 [G,B,G]4[K:bass] [C,G,]2 | [D,G,D]2 [D,B,D]2 [D,F,C]3 [G,,G,] |[M:3/4] [G,,D,G,]6 | %17
[M:1/4] [G,B,]2 |[M:4/4] [D,C]2 [D,C]2 [D,B,]2 [D,C]2 | [G,DG]2 [G,B,G]4 [G,B,G]2 | %20
 D,2 D,2 D,2 D,2 | G,6 G,2 | [C,C]2 [B,,B,]2 [A,,A,]2 [G,,G,]2 | [C,G,]4 [C,G,]2 [^C,G,_B,]2 | %24
 z2 .B,2 z4 |[M:3/4] [G,,G,]6 |] %26
V:3
 x8 | z4 z2 B,2 | x8 | x8 | x8 | x8 | x8 | x8 | x8 | x8 | x8 | x8 | x8 | z2 D2 z4 | x8 | x8 | %16
[M:3/4] x6 |[M:1/4] x2 |[M:4/4] x8 | x8 | x8 | x8 | x8 | E6 z2 | x8 |[M:3/4] x6 |] %26
V:4
 x8 | x8 | x8 | x8 | x8 | z4 z2 [G,,D,]2 | x8 | x8 | x8 | x8 | x8 | x8 | D,6 z2 | x8 | %14
 x6[K:bass] x2 | x8 |[M:3/4] x6 |[M:1/4] x2 |[M:4/4] x8 | x8 | x8 | x8 | x8 | x8 | %24
 [D,G,B,]2 [D,D]-[D,DE] D,2 [D,F,]2 |[M:3/4] x6 |] %26

